X:41
T: Der Koenigin Luise Abschied
N: Z0042
O: Europa, Mitteleuropa, Deutschland
R: Sagen - Lied, Romanze
M: 3/4
L: 1/8
K: Bb
FA | B3FGA | BFF
FBd | c3ABc | A4
FF | edcBfB | BAGF
DF | B2f2ec | B4

